X:37
T:Breakdown
M:2/4
L:1/16
Z: Jason R. Fruit <Jason R. Fruit@big-mac>
K:A
(3(efg) | a2g2 a2e2 | fedf edcA | E2B2 G2B2 | eagf edce |
a2g2 a2e2 | fedf edcA| E2B2 G2B2 | A2AA A2 & A2AG A2 :|
|: AF | E2A2 cBcd | e2ef edcA | E2B2 G2B2 | eagf edcB |
E2A2 cBAc | e2ef edcA | E2B2 G2B2 | A2AA A2 & A2AG A2:|

